icon/cg/layout-list.svg

<svg width="24" height="24" fill="none" xmlns="http://www.w3.org/2000/svg"><path d="M9 7H7v2h2V7ZM7 13v-2h2v2H7ZM7 15v2h2v-2H7ZM11 15v2h6v-2h-6ZM17 13v-2h-6v2h6ZM17 7v2h-6V7h6Z" fill="currentColor"/></svg>

<svg viewBox="0 0 24 24" fill="none" xmlns="http://www.w3.org/2000/svg" height="1em" width="1em">
  <path d="M9 7H7V9H9V7Z" fill="currentColor"/>
  <path d="M7 13V11H9V13H7Z" fill="currentColor"/>
  <path d="M7 15V17H9V15H7Z" fill="currentColor"/>
  <path d="M11 15V17H17V15H11Z" fill="currentColor"/>
  <path d="M17 13V11H11V13H17Z" fill="currentColor"/>
  <path d="M17 7V9H11V7H17Z" fill="currentColor"/>
</svg>
